!!!OTL: Wang lang po
!!!ARE: Asia, China,ÿYunnan, Dongchuan
!! II, 48
!!!SCT: C1482
!!!YEM: Copyright 1995, estate of Helmut Schaffrath.
**kern
*ICvox
*Ivox
*M2/4
*k[]
*C:
{8cc
8a
4a
=1
4.dd
16cc
16a
=2
8cc
8dd
4dd}
=3
{8dd
8dd
8a
8f#
=4
4.g
16cc
16b
=5
8a
16cc
16b
8g
16e
16d
=6
2d}
=7
{8d
8d
16d
16f#
8g
=8
8g
8a
16a
16cc
8dd}
=9
{8dd
8dd
8a
8f#
=10
4.g
16cc
16b
=11
8a
16cc
16b
8g
16e
16d
=12
2d}
==
!!!AGN: Shange. Pan qinren
!!!AMT: simple duple
!!!AIN: vox
!!!EED: Helmut Schaffrath
!!!EEV: 1.0
*-
